tools/download-figma-icons/icons/outlined-large/townhall.svg

<svg width="64" height="64" viewBox="0 0 64 64" fill="none" xmlns="http://www.w3.org/2000/svg">
<path fill-rule="evenodd" clip-rule="evenodd" d="M11.8331 10.665C11.8331 9.83661 12.5047 9.16504 13.3331 9.16504H50.6665C51.4949 9.16504 52.1665 9.83661 52.1665 10.665V17.165H55.9996H58.6665C59.4949 17.165 60.1665 17.8366 60.1665 18.665C60.1665 19.4935 59.4949 20.165 58.6665 20.165H57.4996V54.4984H58.6665C59.4949 54.4984 60.1665 55.1699 60.1665 55.9984C60.1665 56.8268 59.4949 57.4984 58.6665 57.4984H55.9996H43.0704C43.0471 57.4995 43.0236 57.5 43 57.5C42.9764 57.5 42.9529 57.4995 42.9296 57.4984H32.0704C32.0557 57.4991 32.041 57.4995 32.0262 57.4998C32.0175 57.4999 32.0087 57.5 32 57.5C31.9764 57.5 31.9529 57.4995 31.9296 57.4984H21.0704C21.0471 57.4995 21.0236 57.5 21 57.5C20.9764 57.5 20.9529 57.4995 20.9296 57.4984H7.99964H5.33313C4.5047 57.4984 3.83313 56.8268 3.83313 55.9984C3.83313 55.1699 4.5047 54.4984 5.33313 54.4984H6.49964V20.165H5.33313C4.5047 20.165 3.83313 19.4935 3.83313 18.665C3.83313 17.8366 4.5047 17.165 5.33313 17.165H7.99964H11.8331V10.665ZM22.5 54.4984V44C22.5 43.1716 21.8284 42.5 21 42.5C20.1716 42.5 19.5 43.1716 19.5 44V54.4984H9.49964V20.165H54.4996V54.4984H44.5V44C44.5 43.1716 43.8284 42.5 43 42.5C42.1716 42.5 41.5 43.1716 41.5 44V54.4984H33.5V44C33.5 43.1716 32.8284 42.5 32 42.5C31.1716 42.5 30.5 43.1716 30.5 44V54.4984H22.5ZM49.1665 12.165V17.165H14.8331V12.165H49.1665ZM32 25.5C28.9624 25.5 26.5 27.9624 26.5 31C26.5 34.0376 28.9624 36.5 32 36.5C35.0376 36.5 37.5 34.0376 37.5 31C37.5 27.9624 35.0376 25.5 32 25.5ZM23.5 31C23.5 26.3056 27.3056 22.5 32 22.5C36.6944 22.5 40.5 26.3056 40.5 31C40.5 35.6944 36.6944 39.5 32 39.5C27.3056 39.5 23.5 35.6944 23.5 31ZM33.5 29C33.5 28.1716 32.8284 27.5 32 27.5C31.1716 27.5 30.5 28.1716 30.5 29V31C30.5 31.8284 31.1716 32.5 32 32.5H34C34.8284 32.5 35.5 31.8284 35.5 31C35.5 30.1716 34.8284 29.5 34 29.5H33.5V29Z" fill="black"/>
</svg>

<svg xmlns="http://www.w3.org/2000/svg" width="64" height="64" fill="none" viewBox="0 0 64 64"><path fill="currentColor" fill-rule="evenodd" d="M11.833 10.665a1.5 1.5 0 0 1 1.5-1.5h37.334a1.5 1.5 0 0 1 1.5 1.5v6.5h6.499a1.5 1.5 0 0 1 0 3H57.5v34.333h1.166a1.5 1.5 0 1 1 0 3H43.07a2 2 0 0 1-.14 0H32.07a2 2 0 0 1-.14 0H21.07a2 2 0 0 1-.14 0H5.333a1.5 1.5 0 0 1 0-3H6.5V20.165H5.333a1.5 1.5 0 1 1 0-3h6.5zM22.5 54.498V44a1.5 1.5 0 0 0-3 0v10.498h-10V20.165h45v34.333h-10V44a1.5 1.5 0 0 0-3 0v10.498h-8V44a1.5 1.5 0 0 0-3 0v10.498zm26.667-42.333v5H14.832v-5zM32 25.5a5.5 5.5 0 1 0 0 11 5.5 5.5 0 0 0 0-11M23.5 31a8.5 8.5 0 1 1 17 0 8.5 8.5 0 0 1-17 0m10-2a1.5 1.5 0 0 0-3 0v2a1.5 1.5 0 0 0 1.5 1.5h2a1.5 1.5 0 0 0 0-3h-.5z" clip-rule="evenodd"/></svg>
